svg/fluentui-system-icons/ic_fluent_scan_camera_48_filled.svg

<svg width="48" height="48" viewBox="0 0 48 48" fill="none" xmlns="http://www.w3.org/2000/svg">
<path d="M6 12.5C6 8.91015 8.91015 6 12.5 6H17.8433C18.6717 6 19.3433 6.67157 19.3433 7.5C19.3433 8.32843 18.6717 9 17.8433 9H12.5C10.567 9 9 10.567 9 12.5V17.8433C9 18.6717 8.32843 19.3433 7.5 19.3433C6.67157 19.3433 6 18.6717 6 17.8433V12.5ZM28.6567 7.5C28.6567 6.67157 29.3283 6 30.1567 6H35.5C39.0899 6 42 8.91015 42 12.5V17.8433C42 18.6717 41.3284 19.3433 40.5 19.3433C39.6716 19.3433 39 18.6717 39 17.8433V12.5C39 10.567 37.433 9 35.5 9H30.1567C29.3283 9 28.6567 8.32843 28.6567 7.5ZM7.5 28.6567C8.32843 28.6567 9 29.3283 9 30.1567V35.5C9 37.433 10.567 39 12.5 39H17.8433C18.6717 39 19.3433 39.6716 19.3433 40.5C19.3433 41.3284 18.6717 42 17.8433 42H12.5C8.91015 42 6 39.0899 6 35.5V30.1567C6 29.3283 6.67157 28.6567 7.5 28.6567ZM40.5 28.6567C41.3284 28.6567 42 29.3283 42 30.1567V35.5C42 39.0899 39.0899 42 35.5 42H30.1567C29.3283 42 28.6567 41.3284 28.6567 40.5C28.6567 39.6716 29.3283 39 30.1567 39H35.5C37.433 39 39 37.433 39 35.5V30.1567C39 29.3283 39.6716 28.6567 40.5 28.6567ZM27 24.5C27 22.8431 25.6569 21.5 24 21.5C22.3431 21.5 21 22.8431 21 24.5C21 26.1569 22.3431 27.5 24 27.5C25.6569 27.5 27 26.1569 27 24.5ZM27.8647 15.6134C27.4607 14.9255 26.7225 14.5031 25.9247 14.5031H22.1224C21.3403 14.5031 20.6143 14.9092 20.205 15.5757L19.3304 17H17.25C15.4551 17 14 18.4551 14 20.25V29.75C14 31.5449 15.4551 33 17.25 33H30.75C32.5449 33 34 31.5449 34 29.75V20.25C34 18.4551 32.5449 17 30.75 17H28.6793L27.8647 15.6134ZM19.5 24.5C19.5 22.0147 21.5147 20 24 20C26.4853 20 28.5 22.0147 28.5 24.5C28.5 26.9853 26.4853 29 24 29C21.5147 29 19.5 26.9853 19.5 24.5Z" fill="#212121"/>
</svg>

<svg xmlns="http://www.w3.org/2000/svg" width="48" height="48"><path d="M6 12.5A6.5 6.5 0 0 1 12.5 6h5.343a1.5 1.5 0 0 1 0 3H12.5A3.5 3.5 0 0 0 9 12.5v5.343a1.5 1.5 0 0 1-3 0V12.5Zm22.657-5a1.5 1.5 0 0 1 1.5-1.5H35.5a6.5 6.5 0 0 1 6.5 6.5v5.343a1.5 1.5 0 0 1-3 0V12.5A3.5 3.5 0 0 0 35.5 9h-5.343a1.5 1.5 0 0 1-1.5-1.5ZM7.5 28.657a1.5 1.5 0 0 1 1.5 1.5V35.5a3.5 3.5 0 0 0 3.5 3.5h5.343a1.5 1.5 0 0 1 0 3H12.5A6.5 6.5 0 0 1 6 35.5v-5.343a1.5 1.5 0 0 1 1.5-1.5Zm33 0a1.5 1.5 0 0 1 1.5 1.5V35.5a6.5 6.5 0 0 1-6.5 6.5h-5.343a1.5 1.5 0 0 1 0-3H35.5a3.5 3.5 0 0 0 3.5-3.5v-5.343a1.5 1.5 0 0 1 1.5-1.5ZM27 24.5a3 3 0 1 0-6 0 3 3 0 0 0 6 0Zm.865-8.887a2.25 2.25 0 0 0-1.94-1.11h-3.803a2.25 2.25 0 0 0-1.917 1.073L19.33 17h-2.08A3.25 3.25 0 0 0 14 20.25v9.5A3.25 3.25 0 0 0 17.25 33h13.5A3.25 3.25 0 0 0 34 29.75v-9.5A3.25 3.25 0 0 0 30.75 17h-2.07l-.815-1.387ZM19.5 24.5a4.5 4.5 0 1 1 9 0 4.5 4.5 0 0 1-9 0Z"/></svg>
